assets/Flying disc/Flat/flying_disc_flat.svg

<svg width="32" height="32" viewBox="0 0 32 32" fill="none" xmlns="http://www.w3.org/2000/svg">
<path d="M22.9658 15.54C13.5558 5.59001 21.4558 3.69 28.2558 3.56C28.6758 3.55 29.0258 3.21 29.0258 2.78C29.0258 2.35 28.6758 2 28.2458 2H15.0258C8.40576 2 3.03577 7.36999 3.03577 13.99V19.03L24.5158 17.43L22.9658 15.54Z" fill="#26EAFC"/>
<path d="M26.1857 25.41C27.9557 21.02 24.2957 15.41 18.0157 12.89C11.7357 10.36 5.21573 11.87 3.44573 16.26C1.67573 20.65 5.33574 26.26 11.6157 28.78C17.8957 31.31 24.4157 29.8 26.1857 25.41Z" fill="#0074BA"/>
<path d="M25.6958 23.12C27.0958 19.63 23.6958 14.98 18.0958 12.72C12.4958 10.46 6.81578 11.46 5.41579 14.95C4.01579 18.44 7.41579 23.09 13.0158 25.35C18.6158 27.61 24.2958 26.61 25.6958 23.12Z" fill="#00A6ED"/>
<path d="M23.2243 22.1516C24.2845 19.5184 21.7095 16.0008 17.4728 14.2949C13.2361 12.589 8.94203 13.3407 7.88175 15.9739C6.82148 18.6071 9.39653 22.1247 13.6332 23.8306C17.87 25.5365 22.164 24.7848 23.2243 22.1516Z" stroke="#26EAFC" stroke-width="0.6859" stroke-miterlimit="10"/>
</svg>

<svg xmlns="http://www.w3.org/2000/svg" width="32" height="32" fill="none"><path fill="#26EAFC" d="M22.966 15.54c-9.41-9.95-1.51-11.85 5.29-11.98.42-.01.77-.35.77-.78 0-.43-.35-.78-.78-.78h-13.22c-6.62 0-11.99 5.37-11.99 11.99v5.04l21.48-1.6-1.55-1.89Z"/><path fill="#0074BA" d="M26.186 25.41c1.77-4.39-1.89-10-8.17-12.52-6.28-2.53-12.8-1.02-14.57 3.37-1.77 4.39 1.89 10 8.17 12.52 6.28 2.53 12.8 1.02 14.57-3.37Z"/><path fill="#00A6ED" d="M25.696 23.12c1.4-3.49-2-8.14-7.6-10.4s-11.28-1.26-12.68 2.23c-1.4 3.49 2 8.14 7.6 10.4s11.28 1.26 12.68-2.23Z"/><path stroke="#26EAFC" stroke-miterlimit="10" stroke-width=".686" d="M23.224 22.152c1.06-2.634-1.515-6.151-5.751-7.857-4.237-1.706-8.531-.954-9.591 1.679-1.06 2.633 1.515 6.15 5.751 7.857 4.237 1.706 8.531.954 9.591-1.68Z"/></svg>
